svg/currency_cny.svg

<svg xmlns="http://www.w3.org/2000/svg" viewBox="0 0 24 24"><path d="M11 21v-5H6v-2h5v-.29L10.16 12H6v-2h3.19L5.77 3H8l4 8.2L16 3h2.23l-3.42 7H18v2h-4.16L13 13.71V14h5v2h-5v5z"/></svg>

<?xml version="1.0" encoding="UTF-8"?><!DOCTYPE svg PUBLIC "-//W3C//DTD SVG 1.1//EN" "http://www.w3.org/Graphics/SVG/1.1/DTD/svg11.dtd"><svg xmlns="http://www.w3.org/2000/svg" xmlns:xlink="http://www.w3.org/1999/xlink" version="1.1" id="mdi-currency-cny" width="24" height="24" viewBox="0 0 24 24"><path d="M11,21V16H6V14H11V13.71L10.16,12H6V10H9.19L5.77,3H8L12,11.2L16,3H18.23L14.81,10H18V12H13.84L13,13.71V14H18V16H13V21H11Z" /></svg>
